vendor/shopware/storefront/Resources/app/storefront/dist/assets/icon/default/trophy.svg

<svg xmlns="http://www.w3.org/2000/svg" width="24" height="24" viewBox="0 0 24 24">
  <path fill="#758CA3" fill-rule="evenodd" d="M9,18 L9,14.6585886 C6.97354233,13.9423386 5.44673915,12.1683531 5.08295844,10 L4.5,10 C2.56700338,10 1,8.43299662 1,6.5 L1,4 C1,3.44771525 1.44771525,3 2,3 L5,3 L5,1 C5,0.44771525 5.44771525,1.01453063e-16 6,0 L18,0 C18.5522847,8.7960173e-16 19,0.44771525 19,1 L19,3 L22,3 C22.5522847,3 23,3.44771525 23,4 L23,6.5 C23,8.43299662 21.4329966,10 19.5,10 L18.9170416,10 C18.5532608,12.1683531 17.0264577,13.9423386 15,14.6585886 L15,18 L15.2792408,18 C15.7096712,18 16.09181,18.2754301 16.2279241,18.6837722 L17.5612574,22.6837722 C17.7359052,23.2077156 17.4527452,23.7740355 16.9288019,23.9486833 C16.8268354,23.9826721 16.7200562,24 16.6125741,24 L7.38742589,24 C6.83514114,24 6.38742589,23.5522847 6.38742589,23 C6.38742589,22.8925179 6.40475377,22.7857387 6.43874259,22.6837722 L7.77207592,18.6837722 C7.90818997,18.2754301 8.29032881,18 8.72075922,18 L9,18 Z M13,18 L13,15 L11,15 L11,18 L13,18 Z M13,13 C15.209139,13 17,11.209139 17,9 L17,4 L17,2 L7,2 L7,4 L7,9 C7,11.209139 8.790861,13 11,13 L13,13 Z M19,8 L19.5,8 C20.3284271,8 21,7.32842712 21,6.5 L21,5 L19,5 L19,8 Z M3,6.5 C3,7.32842712 3.67157288,8 4.5,8 L5,8 L5,5 L3,5 L3,6.5 Z M8.77485177,22 L15.2251482,22 L14.5584816,20 L9.44151844,20 L8.77485177,22 Z"/>
</svg>

<svg xmlns="http://www.w3.org/2000/svg" width="24" height="24" viewBox="0 0 24 24"><path fill="#758CA3" fill-rule="evenodd" d="M9 18v-3.3414C6.9735 13.9423 5.4467 12.1684 5.083 10H4.5C2.567 10 1 8.433 1 6.5V4c0-.5523.4477-1 1-1h3V1c0-.5523.4477-1 1-1h12c.5523 0 1 .4477 1 1v2h3c.5523 0 1 .4477 1 1v2.5c0 1.933-1.567 3.5-3.5 3.5h-.583c-.3637 2.1684-1.8905 3.9423-3.917 4.6586V18h.2792a1 1 0 0 1 .9487.6838l1.3334 4c.1746.524-.1086 1.0902-.6325 1.2649a1 1 0 0 1-.3162.0513H7.3874c-.5523 0-1-.4477-1-1a1 1 0 0 1 .0513-.3162l1.3334-4A1 1 0 0 1 8.7208 18H9zm4 0v-3h-2v3h2zm0-5c2.2091 0 4-1.7909 4-4V2H7v7c0 2.2091 1.7909 4 4 4h2zm6-5h.5c.8284 0 1.5-.6716 1.5-1.5V5h-2v3zM3 6.5C3 7.3284 3.6716 8 4.5 8H5V5H3v1.5zM8.7749 22h6.4502l-.6666-2h-5.117l-.6666 2z"/></svg>
